dist/assets/vector3.svg

<svg width="50" height="50" viewBox="0 0 50 50" fill="none" xmlns="http://www.w3.org/2000/svg">
<path d="M50 23.4407C50 36.3867 38.8063 46.8814 25 46.8814C22.5239 46.885 20.0581 46.5405 17.6656 45.8567C15.8406 46.8479 11.65 48.75 4.6 49.989C3.975 50.0962 3.5 49.3996 3.74688 48.7768C4.85313 45.9773 5.85313 42.2469 6.15312 38.8446C2.325 34.7257 0 29.3344 0 23.4407C0 10.4947 11.1937 0 25 0C38.8063 0 50 10.4947 50 23.4407ZM15.625 23.4407C15.625 22.5526 15.2958 21.7008 14.7097 21.0728C14.1237 20.4449 13.3288 20.092 12.5 20.092C11.6712 20.092 10.8763 20.4449 10.2903 21.0728C9.70424 21.7008 9.375 22.5526 9.375 23.4407C9.375 24.3288 9.70424 25.1806 10.2903 25.8086C10.8763 26.4366 11.6712 26.7894 12.5 26.7894C13.3288 26.7894 14.1237 26.4366 14.7097 25.8086C15.2958 25.1806 15.625 24.3288 15.625 23.4407ZM28.125 23.4407C28.125 22.5526 27.7958 21.7008 27.2097 21.0728C26.6237 20.4449 25.8288 20.092 25 20.092C24.1712 20.092 23.3763 20.4449 22.7903 21.0728C22.2042 21.7008 21.875 22.5526 21.875 23.4407C21.875 24.3288 22.2042 25.1806 22.7903 25.8086C23.3763 26.4366 24.1712 26.7894 25 26.7894C25.8288 26.7894 26.6237 26.4366 27.2097 25.8086C27.7958 25.1806 28.125 24.3288 28.125 23.4407ZM37.5 26.7894C38.3288 26.7894 39.1237 26.4366 39.7097 25.8086C40.2958 25.1806 40.625 24.3288 40.625 23.4407C40.625 22.5526 40.2958 21.7008 39.7097 21.0728C39.1237 20.4449 38.3288 20.092 37.5 20.092C36.6712 20.092 35.8763 20.4449 35.2903 21.0728C34.7042 21.7008 34.375 22.5526 34.375 23.4407C34.375 24.3288 34.7042 25.1806 35.2903 25.8086C35.8763 26.4366 36.6712 26.7894 37.5 26.7894Z" fill="white"/>
</svg>

<svg width="50" height="50" fill="none" xmlns="http://www.w3.org/2000/svg"><path d="M50 23.44c0 12.947-11.194 23.441-25 23.441a26.534 26.534 0 01-7.334-1.024c-1.825.99-6.016 2.893-13.066 4.132-.625.107-1.1-.59-.853-1.212 1.106-2.8 2.106-6.53 2.406-9.932C2.325 34.725 0 29.335 0 23.44 0 10.495 11.194 0 25 0s25 10.495 25 23.44zm-34.375 0c0-.887-.33-1.74-.915-2.367a3.023 3.023 0 00-2.21-.981c-.829 0-1.624.353-2.21.98a3.474 3.474 0 00-.915 2.369c0 .888.33 1.74.915 2.368.586.628 1.381.98 2.21.98s1.624-.352 2.21-.98c.586-.628.915-1.48.915-2.368zm12.5 0c0-.887-.33-1.74-.915-2.367a3.023 3.023 0 00-2.21-.981c-.829 0-1.624.353-2.21.98a3.474 3.474 0 00-.915 2.369c0 .888.33 1.74.915 2.368.586.628 1.381.98 2.21.98s1.624-.352 2.21-.98c.586-.628.915-1.48.915-2.368zm9.375 3.35c.829 0 1.624-.353 2.21-.981.586-.628.915-1.48.915-2.368 0-.888-.33-1.74-.915-2.368a3.023 3.023 0 00-2.21-.981c-.829 0-1.624.353-2.21.98a3.474 3.474 0 00-.915 2.369c0 .888.33 1.74.915 2.368.586.628 1.381.98 2.21.98z" fill="#fff"/></svg>
